!!!OTL: BEFIEHL DU MEINE WEGE
!!!ARE: Europa, Mitteleuropa, Deutschland
!!!SCT: F1031
!!!YEM: Copyright 1995, estate of Helmut Schaffrath.
**kern
*ICvox
*Ivox
*M4/4
*k[f#c#]
*D:
{4f#
=1
4b
4a
4g
4f#
=2
2e
4f#}
{4cc#
=3
4dd
4dd
8cc#
8b
4cc#
=4
2.b}
{4f#
=5
4b
4a
4g
4f#
=6
2e
4f#}
{4cc#
=7
4dd
4dd
8cc#
8b
4cc#
=8
2.b}
{4dd
=9
8cc#
8b
4a
4b
4cc#
=10
2dd
4dd}
{4a
=11
4b
4a
8g
8f#
4g
=12
2.f#}
{4dd
=13
8cc#
8dd
4ee
4dd
4cc#
=14
2b
4cc#}
{4f#
=15
4g
4f#
4e
4a
=16
2.f#}
==
!!!AGN: Erbauungs - Lied, religioes, Choral
!!!ONB: ESAC (Essen Associative Code) Database: FINK
!!!AMT: simple quadruple
!!!AIN: vox
!!!EED: Helmut Schaffrath
!!!EEV: 1.0
*-
